X:1
T: Elaine Brunken's Jig
C:Bruce Shawyer
R:Jig
Q:180
K:D
M:6/8
L:1/16
|:A2|d6 d4A2|B2A2G2 A2B2c2|d2c2d2 e2d2e2|f2g2f2 e4A2|
g4g2 f2g2f2|e2g2d2 c2B2A2|B2c2d2 c2A2e2|d6 d4:|
|:A2|a6 a4f2|g2e2d2 c2d2e2|a6 a4f2|g2e2f2 g6|
a6 a4f2|g2e2d2 c2d2e2|B2c2d2 c2A2e2|d6 d4:|
